X: 33651
T: Rambles Of Spring, The
R: reel
M: 4/4
K: Gmajor
DC|"G"B,DGA "Em"B2 AG|"C"EDCE "D"D2 DC|"G"B,DGA "Em"BGcB|"D"A6 DC|
"G"B,DGA "Em" B2 AG|"C"EDCE "D"D2 GA|"G"BGcB "D"A>G FA|"G"G6 Bc||
"G"d2 B2 "Em"G2 Bd|"C"e2 cB "D"A2 Bc|"G"dBcA "Em"BGAF|"D"D6 Bc|
"G"ddBA "Em"G2 Bd|"C"eecB"D"A2 Bc|"G"dBcA "D"FDBA|"G" G6||

